X: 81
T: MacIntosh of MacIntosh
R:Reel
C:James Macintosh
S:MacDonald - Skye Collection
N:pg.129
M:C
L:1/8
K:Bb
d|B2 FE DB,B,D|ECCE DFFA|B2 FE (DF)BF|GEcA B2B:|
f|dBdf gabg|fdcB Acce|dBdf gabg|fdec B2 Bf|dBdf gabg|
fdcB Accd|BGFE DFBF|GEcA B2B||


